public/images/icon-maximize.svg

<?xml version="1.0" encoding="UTF-8"?>
<svg viewBox="0 0 1024 1024" version="1.1" xmlns="http://www.w3.org/2000/svg" xmlns:xlink="http://www.w3.org/1999/xlink">
	<path d="M267.271964,697.618047 L388.422796,574.143713 L450.172679,636.198412 L332.229047,756.315986 L470.5,756.315986 L470.5,844 L180,844 L180,552.279412 L267.271964,552.279412 L267.271964,697.618047 Z M553.5,180 L844,180 L844,471.720588 L756.714463,471.720588 L756.714463,326.336591 L635.54479,449.810925 L573.785303,387.801588 L691.792457,267.638653 L553.5,267.638653 L553.5,180 Z" id="arrow"></path>
</svg>

<svg viewBox="0 0 1024 1024" xmlns="http://www.w3.org/2000/svg"><path d="M267.272 697.618l121.1508-123.4743 61.7499 62.0547L332.229 756.316H470.5V844H180V552.2794h87.272V697.618zM553.5 180H844v291.7206h-87.2855v-145.384L635.5448 449.8109l-61.7595-62.0093 118.0072-120.163H553.5V180z"/></svg>
